X: 84
T: Wellington's advance
C: anon.
O: Ireland
B: Francis O'Neill: "The Dance Music of Ireland" (1907) no. 84
R: Double jig
Z: Transcribed by Frank Nordberg - http://www.musicaviva.com
F: http://www.musicaviva.com/abc/tunes/ireland/oneill-1001/oneill-1001-008
4.abc
M: 6/8
L: 1/8
K: Am
G|EAA A^GA|{d}cBA c2d|efe e^fg|dBG G^FG|EAA A^GA|{d}cBA c2e|efe dcB|cAA A
2: |
|:(3e/^f/g/|aee aee|aed {d}cBA|BAB gfe|dBG G^FG|eaa a^ga|egg g^fg|efe dcB
|cAA A2:|
W:
W:
W: From Musica Viva - http://www.musicaviva.com
W: the Internet center for free sheet music downloads.


